!!!OTL: 123. Skotshne
!!!Genre:	Skotshne
!!!Mode:	Minor
!!!Listening/dance:	dance
!!!One_Mode:	no
**kern
*thru
*I"P1
*clefG2
*k[b-e-]
*g:
*M2/4
*>A
=1
!LO:TX:a:i:t=G-minor
8g
8r
8.ddL
16ccJk
=2
16ccLL
16ddJJ
4b-
8cc
=3
8.ddL
16ccJk
8b-L
8ccJ
=4
8ddL
8cc
8b-
8aJ
=5
8g
8r
8.ddL
16ccJk
=6
16ccLL
16ddJJ
4b-
8b-
=7
(16b-LL
16f)
(16f
16b-JJ)
(16b-LL
16a-X)
(16a-
16gJJ)
=8
2g
=9:|!|:
*>A
=1
!LO:TX:a:i:t=G-minor
8g
8r
8.ddL
16ccJk
=2
16ccLL
16ddJJ
4b-
8cc
=3
8.ddL
16ccJk
8b-L
8ccJ
=4
8ddL
8cc
8b-
8aJ
=5
8g
8r
8.ddL
16ccJk
=6
16ccLL
16ddJJ
4b-
8b-
=7
(16b-LL
16f)
(16f
16b-JJ)
(16b-LL
16a-X)
(16a-
16gJJ)
=8
2g
=9:|!|:
*>B
16anLL
16b-JJ
4cc
8b-
=10
8ccTL
16b-L
16aJJ
4g
=11
(16gLL
16f)
(16f
16b-JJ)
(16b-LL
16a)
(16a
16gJJ)
=12
8ccTL
16b-L
16aJJ
4b-
=13
16aLL
16b-JJ
4cc
8b-
=14
8ccTL
16b-L
16aJJ
4g
=15
(16gLL
16f)
(16f
16b-JJ)
(16b-LL
16a-X)
(16a-
16gJJ)
*>B1
=16
!LO:TX:b:Bi:t=Fine
2g
*>B
16anLL
16b-JJ
4cc
8b-
=10
8ccTL
16b-L
16aJJ
4g
=11
(16gLL
16f)
(16f
16b-JJ)
(16b-LL
16a)
(16a
16gJJ)
=12
8ccTL
16b-L
16aJJ
4b-
=13
16aLL
16b-JJ
4cc
8b-
=14
8ccTL
16b-L
16aJJ
4g
=15
(16gLL
16f)
(16f
16b-JJ)
(16b-LL
16a-X)
(16a-
16gJJ)
*>B2
=17:|!
8gL
*>C
!!!Begin-Modulation
*g:
!LO:TX:a:i:t=G-minor
=30
8gL
16ccL
16ccJJ
16ccLL
16cc
16cc
16ccJJ
=31
8ccL
8b-
8a
8gJ
=32
8fL
16b-L
16b-JJ
16b-LL
16b-
16b-
16b-JJ
=33
8b-L
8a
8g
8fJ
*>D
=34!|:
4.g
8b-
=35
(16b-LL
16a)
(16a
16gJJ)
4cc
=36
4.g
8b-
=37
!LO:TX:b:Bi:t=Da Capo
(16b-LL
16a)
(16a
16gJJ)
4g
=:|!
*>D
=34!|:
4.g
8b-
=35
(16b-LL
16a)
(16a
16gJJ)
4cc
=36
4.g
8b-
=37
!LO:TX:b:Bi:t=Da Capo
(16b-LL
16a)
(16a
16gJJ)
4g
=:|!
*-
